public/images/icons/Art.svg

<svg width="202" height="162" viewBox="0 0 202 162" fill="none" xmlns="http://www.w3.org/2000/svg">
<circle cx="84.0638" cy="114.904" r="34.5638" stroke="#5B5B5B" stroke-width="25"/>
<circle cx="47.0638" cy="48.0638" r="41.5638" stroke="#5B5B5B" stroke-width="11"/>
<path d="M158.338 90.204C149.685 95.1999 140.784 97.3586 133.546 97.0554C126.228 96.749 121.437 94.0414 119.257 90.2657C117.077 86.4899 117.128 80.9865 120.521 74.496C123.878 68.0759 130.198 61.4472 138.851 56.4512C147.504 51.4553 156.405 49.2966 163.643 49.5998C170.961 49.9062 175.752 52.6137 177.932 56.3895C180.112 60.1653 180.061 65.6687 176.668 72.1592C173.311 78.5793 166.991 85.208 158.338 90.204Z" stroke="#5B5B5B" stroke-width="11"/>
<path d="M132.204 56.3379C127.208 64.9912 120.579 71.3109 114.159 74.6675C107.668 78.0609 102.165 78.1119 98.3893 75.932C94.6135 73.752 91.906 68.9605 91.5996 61.6428C91.2964 54.4045 93.4551 45.504 98.451 36.8508C103.447 28.1975 110.076 21.8778 116.496 18.5212C122.986 15.1278 128.49 15.0768 132.265 17.2567C136.041 19.4367 138.749 24.2282 139.055 31.5459C139.358 38.7842 137.2 47.6847 132.204 56.3379Z" stroke="#5B5B5B" stroke-width="11"/>
<path d="M162.376 95.5001C172.368 95.5001 181.155 98.0808 187.272 101.963C193.456 105.887 196.252 110.627 196.252 114.987C196.252 119.347 193.456 124.088 187.272 128.012C181.155 131.894 172.368 134.474 162.376 134.474C152.384 134.474 143.597 131.894 137.48 128.012C131.296 124.088 128.5 119.347 128.5 114.987C128.5 110.627 131.296 105.887 137.48 101.963C143.597 98.0808 152.384 95.5001 162.376 95.5001Z" stroke="#5B5B5B" stroke-width="11"/>
</svg>

<svg xmlns="http://www.w3.org/2000/svg" width="202" height="162" fill="none"  stroke="#5b5b5b" xmlns:v="https://vecta.io/nano"><circle cx="84.064" cy="114.904" r="34.564" stroke-width="25"/><g stroke-width="11"><circle cx="47.064" cy="48.064" r="41.564"/><path d="M158.338 90.204c-8.653 4.996-17.554 7.155-24.792 6.851-7.318-.306-12.109-3.014-14.289-6.79s-2.129-9.279 1.264-15.77c3.357-6.42 9.677-13.049 18.33-18.045s17.554-7.155 24.792-6.851c7.318.306 12.109 3.014 14.289 6.79s2.129 9.279-1.264 15.77c-3.357 6.42-9.677 13.049-18.33 18.045zm-26.134-33.866c-4.996 8.653-11.625 14.973-18.045 18.33-6.491 3.393-11.994 3.444-15.77 1.264s-6.483-6.972-6.79-14.289c-.303-7.238 1.856-16.139 6.851-24.792s11.625-14.973 18.045-18.33c6.49-3.393 11.994-3.444 15.769-1.265s6.484 6.972 6.79 14.289c.303 7.238-1.855 16.139-6.851 24.792zM162.376 95.5c9.992 0 18.779 2.581 24.896 6.463 6.184 3.924 8.98 8.664 8.98 13.024s-2.796 9.101-8.98 13.025c-6.117 3.882-14.904 6.462-24.896 6.462s-18.779-2.58-24.896-6.462c-6.184-3.924-8.98-8.665-8.98-13.025s2.796-9.1 8.98-13.024c6.117-3.882 14.904-6.463 24.896-6.463z"/></g></svg>
